X: 22988
T: Lasses Of Stewarton, The
R: reel
M: 4/4
K: Dmixolydian
g|:"D"fd"A"e^c "D" d2 AG|"D"FDDF (A2{B}A)g|"D"fd"C"e=c "G"BG"C"AG|1 "C"Ecce"G"g2ag:|2 "C"EccE "G"G3c||
"G"((3|:Bcd) BG"D" AFDc|"G"((3Bcd) BG "D"A{B}A{B}A c|"G"((3Bcd) BG "D"ABcA|"C"GEcE "G"G{A}G{A}Gc:|
|:"G"BAGA BAGA|"D"FDDF A{B}A{B}Ac|"C"BGAG "D"ABcA|1 "C"GEcE "G"G{A}G{A}GA:|2 "C"GEce "G"g{a}gfe||
"D".d2(~a2{b}a)fdf|"D"afdf aafe|"D"defg afdf|"C"gece g2fe|
"D"defg afdf|"D"afdf abaf|"D"defg abaf|"C"gece "G"gbag||

